!!!OTL:Maigloeckchen laeutet in dem Thal. (Volkslied)
!!!OTL-incipit:MAIGLOECKCHEN LAEUTET IN DEM TAL
!!!COM: W. Tschirch
!!!ARE: Europa, Mitteleuropa, Deutschland
!!!SCT: F0230
!!!TXL: @@DE
!!!YEM: Copyright 1995, estate of Helmut Schaffrath.
**kern	**text
*ICvox	*
*clefG2	*
*M2/4	*
*k[f#c#g#d#]	*
*E:	*
!LO:TX:a:t=Schnell und munter.	!
!LO:TX:a:t=Im Volkston c. v. Wilh. Tschirsch	!
!LO:TX:a:t=Zweistimmig.	!
{8b/	1._Mai-
=1	=1
8.ee/	-glöck-
16b/	-chen
8a	läu-
8f#	-tet
=2	=2
8e	in
8g#	dem
8f#}	Thal,
{8f#	das
=3	=3
8g#	klingt
8b/	so
8a	hell
8g#	und
=4	=4
4f#	fein;
8r}	.
{8b	X
=5	=5
8.ee/	kommt
16b/	zum
8a	Rei-
8f#	-gen
=6	=6
8e	all-
8g#	-zu-
8f#}	-mal,
{8f#	ihr
=7	=7
8.b/	lie-
16cc#/	-ben
8a#	Blü-
8f#	-me-
=8	=8
4dd#/}	-lein,
{4dd#/	ihr
=9	=9
8.ee/	lie-
16g#	-ben
8a#	Blü-
8cc#/	-me-
=10	=10
4b/	-lein!
8r}	.
{8cc#/	Die
=11	=11
8.f#	Blüm-
16f#	-lein
8f#	blau
8g#	und
=12	=12
8.a	gelb
16b/	und
8a}	weiß,
{8cc#/	die
=13	=13
8.f#	kom-
16f#	-men
8a	all'
8g#	her-
=14	=14
4a	-bei,
8r}	.
{8b/	Ver-
=15	=15
8.b/	-giß-
16g#	-mein-
8g#	-nicht
8ee/	und
=16	=16
8.ee/	Eh-
16cc#/	-ren-
8cc#/}	-preis
{8ff#/	und
=17	=17
8.dd#/	Veil-
16b/	-chen
8cc#/	sind
8dd#/	da-
=18	=18
4ee/}	-bei,
{4ee/	und
=19	=19
8.ff#/	Veil-
16ff#/	-chen
8dd#/	sind
8b/	da-
=20	=20
4ee/	-bei.
8r}	.
==	==
!!!AGN: Natur - Lied, Pflanzen; Tanz
!!!ONB: ESAC (Essen Associative Code) Database: FINK
!!!AMT: simple duple
!!!AIN: vox
!!!EED: Helmut Schaffrath
!!!EEV: 1.0
!!Text:H. H. v. Fallersleben
!!!source: Musikalischer Hausschatz der Deutschen. Eine Sammlung von über 1000 Liedern und Gesängen mit Singstimmen und Klavierbegleitung. Leipzig, Litterarisches Verlags-Haus.
!!!page: 136
!!!ENC: Anna Maria Matuszewska
!!!EEV: 2025/03/12
*-	*-
